X:1
T:James Gibb editions
T:The valleys and the mountains - Barnby
%%score [ ( 1 2 3 ) ( 4 5 6 ) ]
L:1/8
Q:1/4=92
M:4/4
K:Eb
V:1 treble nm="Midi_74"
V:2 treble 
V:3 treble 
V:4 bass nm="Midi_74"
V:5 bass 
V:6 bass 
V:1
"^The valleys and the mountains""^Joseph Barnby\n(1838-96)""^76. 76. 76. 10. 87. 89"!mf! B2 | %1
 B2 c2 d2 e2 | e4 F2 || F2 | G2 c2 B2 F2 | G6 ||!<(! G2 | =A2 B2 c2 d2 | f4!<)! d2 || d2 | %10
 d2 =e2 d2 ^c2 | d6 ||[M:4/4] d2 | d2 =B2 c2 d2 | (e3 d) c2 || c2 | c2 =A2 B2 c2 | d6 || %18
[Q:1/4=91]!ff! B2 |[Q:1/4=91]"^rit." B3[Q:1/4=90] B[Q:1/4=90] B2[Q:1/4=89] B2 | %20
[Q:1/4=89] B2[Q:1/4=89] B2[Q:1/4=88] c2[Q:1/4=88] c2 |[Q:1/4=88] !fermata!B8 || %22
[Q:1/4=88]"^Stately. A little slower"[Q:1/4=88] B2 c2 B2 e2 | e2 d2 c2 B2 || B2 c2 d2 G=A | %25
 B2 =A2 G4 || B2 c2 B2 e2 | e2 d2 c2 B2 ||!f! G2 A2 B2 c2 |"^rit." !>!B2 !>!c2!ff! !>!d3 e | e8 || %31
 e4 e4 |] %32
V:2
 B2 | G2 G2 G2 G2 | F4 F2 || E2 | E2 E2 D2 D2 | E6 || G2 | F2 F2 F2 F2 | F4 F2 || D2 | %10
 D2 G2 F2 =E2 | F6 ||[M:4/4] F2 | F2 G2 G2 F2 | E4 E2 || E2 | E2 F2 F2 E2 | D6 || B2 | B3 B B2 B2 | %20
 B2 B2 c2 c2 | B8 || E2 E2 E2 G2 | A2 D2 E2 F2 || G2 G2 G2 G2 | G2 ^F2 G4 || D2 E2 F2 E2 | %27
 F2 F2 E2 F2 || G2 E2 E2 E2 | E2 G2 F3 E | E8 || A4 G4 |] %32
V:3
 x2 | x8 | x6 || x2 | x8 | x6 || x2 | x8 | x6 || x2 | x8 | x6 ||[M:4/4] x2 | x8 | x6 || x2 | x8 | %17
 x6 || x2 | x4 [B,DB]4 | [B,EB]4 [CEc]4 | [B,D]8 || x8 | x8 || x8 | x8 || x8 | x8 || x8 | x8 | %30
 x8 || x8 |] %32
V:4
 B,2 | B,2 B,2 B,2 B,2 | C4 C2 || C2 | B,2 G,2 F,2 B,2 | B,6 || B,2 | C2 B,2 =A,2 B,2 | C4 B,2 || %9
 =A,2 | B,2 B,2 =A,2 A,2 | =A,6 ||[M:4/4] =A,2 | =B,2 G,2 =A,2 B,2 | C4 G,2 || B,2 | %16
 =A,2 F,2 G,2 A,2 | B,6 || B,2 | B,3 B, B,2 B,2 | B,2 B,2"^Ped." C2 C2 | B,8 || G,2 G,2 B,2 B,2 | %23
 B,2 B,2 A,2 F,2 || B,2 =A,2 B,2 E2 | D2 C2 B,4 ||"^cresc." !courtesy!_A,2 A,2 A,2 A,2 | %27
 A,2 A,2 A,2 F,2 || B,2 A,2 G,2 F,2 | G,2 B,2 A,3"^Ped." G, | G,8 || C4 B,4 |] %32
V:5
 B,2 | E,2 E,2 E,2 E,2 | A,,4 A,,2 || A,,2 | B,,2 B,,2 B,,2 B,,2 | E,6 || E,2 | E,2 D,2 C,2 B,,2 | %8
 =A,,4 B,,2 || ^F,2 | G,2 =E,2 =A,2 =A,,2 | D,6 ||[M:4/4] D,2 | G,2 G,2 G,2 G,2 | C,4 C,2 || C,2 | %16
 F,2 F,2 F,2 F,2 | B,,6 || B,2 | B,3 B, B,2 B,2 | B,2 B,2 C2 C2 | !fermata!B,8 || %22
 E,2 B,,2 G,2 E,2 | F,2 B,,2 C,2 D,2 || E,2 E,2 B,,2 C,2 | D,2 D,2 G,4 || F,2 E,2 D,2 C,2 | %27
 B,,2 B,,2 C,2 D,2 || E,2 C,2 B,,2 =A,,2 | B,,2 B,,2 B,,3 E, | E,8 || A,4 E,4 |] %32
V:6
 x2 | x8 | x6 || x2 | x8 | x6 || x2 | x8 | x6 || x2 | x8 | x6 ||[M:4/4] x2 | x8 | x6 || x2 | x8 | %17
 x6 || x2 | x4 A,4 | G,4 [E,,E,G,]4 | [B,,A,]8 || x8 | x8 || x8 | x8 || x8 | x8 || x8 | x8 | x8 || %31
 x8 |] %32

